X: 2071
T: Mrs MORTHLAND
C:
Q: "Reel."
R: Reel.
%R: reel
B: James Kerr "Merry Melodies" v.2 p.10 #71
Z: 2016 John Chambers <jc:trillian.mit.edu>
M: C
L: 1/8
K: C
ug |\
e2(dc) GBce | fdec fdec |\
e2(dc) GBcd | egde c/c/c c ::\
uf |\
ecce fddf | ecgc (B/c/d) (BG) |\
ecce fddf | ecdB c3 :|
